icons/Emacs.svg

<svg xmlns="http://www.w3.org/2000/svg" width="256" height="256" fill="none" viewBox="0 0 256 256"><rect width="256" height="256" fill="url(#paint0_linear_161_1073)" rx="60"/><path fill="#fff" fill-rule="evenodd" d="M86.5298 227.747C86.5298 227.747 98.2004 228.569 113.214 227.251C119.294 226.718 142.379 224.46 159.638 220.69C159.638 220.69 180.681 216.206 191.939 212.074C203.718 207.752 210.128 204.083 213.013 198.884C212.887 197.819 213.901 194.042 208.469 191.773C194.581 185.972 178.475 187.021 146.603 186.348C111.26 185.139 99.502 179.248 93.2389 174.503C87.2329 169.69 90.253 156.373 115.987 144.643C128.95 138.396 179.767 126.869 179.767 126.869C162.653 118.445 130.74 103.636 124.18 100.438C118.427 97.6336 109.22 93.4105 107.224 88.3012C104.961 83.3961 112.568 79.1707 116.817 77.9607C130.501 74.0299 149.82 71.5869 167.402 71.3126C176.24 71.1747 177.674 70.6085 177.674 70.6085C189.869 68.5941 197.896 60.286 194.552 47.1284C191.549 33.6979 175.713 25.8063 160.664 28.5383C146.493 31.111 112.336 40.9911 112.336 40.9911C154.556 40.6273 161.623 41.329 164.779 45.7231C166.643 48.3181 163.932 51.8763 152.672 53.7076C140.413 55.7013 114.931 58.1023 114.931 58.1023C90.4855 59.548 73.266 59.6448 68.1015 70.5334C64.7275 77.6471 71.6995 83.9362 74.7554 87.8728C87.669 102.174 106.322 109.887 118.328 115.567C122.846 117.704 136.101 121.74 136.101 121.74C97.1495 119.606 69.0516 131.517 52.5696 145.23C33.9278 162.401 42.1744 182.867 80.3661 195.469C102.924 202.912 114.111 206.413 147.759 203.396C167.578 202.332 170.702 202.965 170.9 204.584C171.178 206.864 148.886 212.528 142.801 214.276C127.318 218.723 86.7329 227.703 86.5298 227.747V227.747Z" clip-rule="evenodd"/><defs><linearGradient id="paint0_linear_161_1073" x1="0" x2="256" y1="0" y2="256" gradientUnits="userSpaceOnUse"><stop stop-color="#8381C5"/><stop offset=".615" stop-color="#7E55B3"/><stop offset="1" stop-color="#A52ECB"/></linearGradient></defs></svg>

<svg xmlns="http://www.w3.org/2000/svg" width="256" height="256" fill="none" viewBox="0 0 256 256"><rect width="256" height="256" fill="url(#a)" rx="60"/><path fill="#fff" fill-rule="evenodd" d="M86.53 227.75s11.67.82 26.68-.5c6.08-.53 29.17-2.79 46.43-6.56 0 0 21.04-4.48 32.3-8.62 11.78-4.32 18.19-7.99 21.07-13.19-.12-1.06.9-4.84-4.54-7.1-13.89-5.8-30-4.76-61.87-5.43-35.34-1.21-47.1-7.1-53.36-11.85-6-4.81-2.99-18.13 22.75-29.86 12.96-6.24 63.78-17.77 63.78-17.77-17.12-8.43-49.03-23.23-55.59-26.43-5.75-2.8-14.96-7.03-16.96-12.14-2.26-4.9 5.35-9.13 9.6-10.34 13.68-3.93 33-6.37 50.58-6.65 8.84-.14 10.27-.7 10.27-.7 12.2-2.02 20.23-10.32 16.88-23.48-3-13.43-18.84-21.32-33.89-18.6C146.5 31.12 112.34 41 112.34 41c42.22-.36 49.28.34 52.44 4.73 1.86 2.6-.85 6.16-12.1 7.99-12.27 2-37.75 4.4-37.75 4.4-24.44 1.44-41.66 1.53-46.83 12.42-3.37 7.12 3.6 13.4 6.66 17.34 12.9 14.3 31.56 22.02 43.57 27.7 4.52 2.13 17.77 6.17 17.77 6.17-38.95-2.13-67.05 9.78-83.53 23.49-18.64 17.17-10.4 37.64 27.8 50.24 22.55 7.44 33.74 10.94 67.39 7.93 19.82-1.07 22.94-.44 23.14 1.18.28 2.28-22.01 7.95-28.1 9.7-15.48 4.44-56.07 13.42-56.27 13.47" clip-rule="evenodd"/><defs><linearGradient id="a" x1="0" x2="256" y1="0" y2="256" gradientUnits="userSpaceOnUse"><stop stop-color="#8381C5"/><stop offset=".61" stop-color="#7E55B3"/><stop offset="1" stop-color="#A52ECB"/></linearGradient></defs></svg>
